svg/fluentui-system-icons/ic_fluent_presenter_off_20_regular.svg

<svg width="20" height="20" viewBox="0 0 20 20" fill="none" xmlns="http://www.w3.org/2000/svg">
<path d="M7 8.5C7 8.26842 7.05248 8.0491 7.14619 7.85328L2.14645 2.85355C1.95118 2.65829 1.95118 2.34171 2.14645 2.14645C2.34171 1.95118 2.65829 1.95118 2.85355 2.14645L17.8536 17.1464C18.0488 17.3417 18.0488 17.6583 17.8536 17.8536C17.6583 18.0488 17.3417 18.0488 17.1464 17.8536L13.4404 14.1475L13.1532 14.4239C13.0553 14.5182 12.9999 14.6482 12.9999 14.7842V16.5C12.9999 17.3284 12.3284 18 11.4999 18H8.49993C7.6715 18 6.99993 17.3284 6.99993 16.5V14.7842C6.99993 14.6482 6.94458 14.5182 6.84664 14.4239L3.14379 10.8603C2.8195 10.5482 3.04042 10 3.49051 10H9.29291L8.2929 9L7 9V8.5ZM10.2929 11H4.73109L7.54008 13.7034C7.8339 13.9862 7.99993 14.3764 7.99993 14.7842V16.5C7.99993 16.7761 8.22378 17 8.49993 17H11.4999C11.7761 17 11.9999 16.7761 11.9999 16.5V14.7842C11.9999 14.3764 12.166 13.9862 12.4598 13.7034L12.7332 13.4403L10.2929 11ZM12 4C12 5.10457 11.1046 6 10 6C8.89543 6 8 5.10457 8 4C8 2.89543 8.89543 2 10 2C11.1046 2 12 2.89543 12 4ZM11 4C11 3.44772 10.5523 3 10 3C9.44772 3 9 3.44772 9 4C9 4.55229 9.44772 5 10 5C10.5523 5 11 4.55229 11 4ZM10.1213 8H11.5C11.7761 8 12 8.22386 12 8.5V9H13V8.5C13 7.67157 12.3284 7 11.5 7H9.12134L10.1213 8ZM14.8817 12.7604L14.1745 12.0531L15.2688 11H13.1213L12.1213 10H16.5093C16.9594 10 17.1804 10.5482 16.8561 10.8603L14.8817 12.7604Z" fill="#212121"/>
</svg>

<svg xmlns="http://www.w3.org/2000/svg" width="20" height="20"><path d="M7 8.5c0-.232.052-.45.146-.647l-5-5a.5.5 0 1 1 .708-.707l15 15a.5.5 0 0 1-.708.708l-3.706-3.706-.287.276a.5.5 0 0 0-.153.36V16.5a1.5 1.5 0 0 1-1.5 1.5h-3A1.5 1.5 0 0 1 7 16.5v-1.716a.5.5 0 0 0-.153-.36L3.144 10.86A.5.5 0 0 1 3.49 10h5.802l-1-1H7v-.5Zm3.293 2.5H4.73l2.81 2.703A1.5 1.5 0 0 1 8 14.784V16.5a.5.5 0 0 0 .5.5h3a.5.5 0 0 0 .5-.5v-1.716a1.5 1.5 0 0 1 .46-1.08l.273-.264-2.44-2.44ZM12 4a2 2 0 1 1-4 0 2 2 0 0 1 4 0Zm-1 0a1 1 0 1 0-2 0 1 1 0 0 0 2 0Zm-.879 4H11.5a.5.5 0 0 1 .5.5V9h1v-.5A1.5 1.5 0 0 0 11.5 7H9.121l1 1Zm4.76 4.76-.707-.707L15.27 11h-2.15l-1-1h4.388a.5.5 0 0 1 .347.86l-1.974 1.9Z"/></svg>
